Gurmukhi/0A1F.svg

<svg enable-background="new 0 0 336 592" viewBox="0 0 336 592" xmlns="http://www.w3.org/2000/svg"><path d="m188.856415 287.959595c-23.092758 4.192871-43.253601 13.222198-59.781616 29.73529-3.420197 3.417145-3.898583 6.100006-1.300141 10.303894 11.578522 18.732209 26.360825 33.213013 49.016327 36.939514 17.280808 2.842469 32.516281-2.783721 46.278687-12.974273 2.666824-1.974671 5.075134-4.309662 7.527191-6.560669 4.026428-3.696259 6.226547-3.583527 9.300827.733673 2.899032 4.071106 5.553879 8.325165 8.602997 12.277435 2.334533 3.026032 1.671356 5.149689-.728562 7.786835-24.026184 26.40094-62.760574 32.224304-93.97644 13.809723-25.464249-15.021668-42.069771-37.324707-52.497917-64.635224-1.054055-2.760467-.3629-4.655517 1.314354-6.817993 18.631836-24.021759 43.381774-37.887695 72.843963-43.805908 6.993469-1.404816 14.121811-2.198395 21.219422-2.9935 2.640686-.295807 3.875808-1.031982 3.858093-3.895233-.073151-11.829986-.065994-23.662185.093399-35.491104.064209-4.763611-2.638352-5.266403-6.455673-5.256561-32.327942.083267-64.656784-.040192-96.983506.176834-4.62947.031067-7.151046-1.366196-8.390022-5.75679-.901512-3.194672-2.352913-6.229859-3.384514-9.393097-1.67073-5.123017-.471466-6.833908 4.750588-7.038986 1.164825-.045746 2.332702-.017533 3.499168-.017258 52.324906.012268 104.649826.021438 156.974732.040909 12.475296.004638 12.474655.020858 16.696792 11.674179.340149.938797.713135 1.865829 1.045105 2.807403 1.98526 5.630646.814667 7.455887-5.024322 7.500672-10.331177.079239-20.669251.271438-30.992112-.019821-4.902099-.138321-6.186172 1.632949-6.11528 6.34822.253006 16.826813.113404 33.659806.089478 50.490403-.008865 6.234771-3.074051 9.957946-9.337067 10.645111-9.253631 1.015289-18.555588 1.594207-28.143951 3.386322z"/></svg>

<svg version="1.1" id="Layer_1" xmlns="http://www.w3.org/2000/svg" xmlns:xlink="http://www.w3.org/1999/xlink" x="0px" y="0px"
	 width="100%" viewBox="0 0 336 592" enable-background="new 0 0 336 592" xml:space="preserve">
<path fill="#000000" opacity="1.000000" stroke="none" 
	d="
M188.856415,287.959595 
	C165.763657,292.152466 145.602814,301.181793 129.074799,317.694885 
	C125.654602,321.112030 125.176216,323.794891 127.774658,327.998779 
	C139.353180,346.730988 154.135483,361.211792 176.790985,364.938293 
	C194.071793,367.780762 209.307266,362.154572 223.069672,351.964020 
	C225.736496,349.989349 228.144806,347.654358 230.596863,345.403351 
	C234.623291,341.707092 236.823410,341.819824 239.897690,346.137024 
	C242.796722,350.208130 245.451569,354.462189 248.500687,358.414459 
	C250.835220,361.440491 250.172043,363.564148 247.772125,366.201294 
	C223.745941,392.602234 185.011551,398.425598 153.795685,380.011017 
	C128.331436,364.989349 111.725914,342.686310 101.297768,315.375793 
	C100.243713,312.615326 100.934868,310.720276 102.612122,308.557800 
	C121.243958,284.536041 145.993896,270.670105 175.456085,264.751892 
	C182.449554,263.347076 189.577896,262.553497 196.675507,261.758392 
	C199.316193,261.462585 200.551315,260.726410 200.533600,257.863159 
	C200.460449,246.033173 200.467606,234.200974 200.626999,222.372055 
	C200.691208,217.608444 197.988647,217.105652 194.171326,217.115494 
	C161.843384,217.198761 129.514542,217.075302 97.187820,217.292328 
	C92.558350,217.323395 90.036774,215.926132 88.797798,211.535538 
	C87.896286,208.340866 86.444885,205.305679 85.413284,202.142441 
	C83.742554,197.019424 84.941818,195.308533 90.163872,195.103455 
	C91.328697,195.057709 92.496574,195.085922 93.663040,195.086197 
	C145.987946,195.098465 198.312866,195.107635 250.637772,195.127106 
	C263.113068,195.131744 263.112427,195.147964 267.334564,206.801285 
	C267.674713,207.740082 268.047699,208.667114 268.379669,209.608688 
	C270.364929,215.239334 269.194336,217.064575 263.355347,217.109360 
	C253.024170,217.188599 242.686096,217.380798 232.363235,217.089539 
	C227.461136,216.951218 226.177063,218.722488 226.247955,223.437759 
	C226.500961,240.264572 226.361359,257.097565 226.337433,273.928162 
	C226.328568,280.162933 223.263382,283.886108 217.000366,284.573273 
	C207.746735,285.588562 198.444778,286.167480 188.856415,287.959595 
z"/>
</svg>
